core/assets/icons/router.outline.svg

<svg width="24" height="24" viewBox="0 0 24 24" fill="none" xmlns="http://www.w3.org/2000/svg">
<g clip-path="url(#clip0_8300_4132)">
<path d="M11 14V11H13V14H18C18.2652 14 18.5196 14.1054 18.7071 14.2929C18.8947 14.4804 19 14.7348 19 15V21C19 21.2652 18.8947 21.5196 18.7071 21.7071C18.5196 21.8946 18.2652 22 18 22H6.00001C5.73479 22 5.48044 21.8946 5.2929 21.7071C5.10537 21.5196 5.00001 21.2652 5.00001 21V15C5.00001 14.7348 5.10537 14.4804 5.2929 14.2929C5.48044 14.1054 5.73479 14 6.00001 14H11ZM2.51001 8.837C3.83501 4.864 7.58401 2 12 2C16.416 2 20.166 4.864 21.49 8.837L19.592 9.469C19.0607 7.87573 18.0416 6.49 16.679 5.50805C15.3165 4.5261 13.6795 3.99771 12 3.99771C10.3205 3.99771 8.68353 4.5261 7.32097 5.50805C5.95842 6.49 4.93932 7.87573 4.40801 9.469L2.51001 8.837ZM6.30601 10.102C6.70487 8.90741 7.46933 7.86853 8.49121 7.13239C9.51308 6.39625 10.7406 6.00015 12 6.00015C13.2594 6.00015 14.4869 6.39625 15.5088 7.13239C16.5307 7.86853 17.2952 8.90741 17.694 10.102L15.796 10.735C15.5301 9.93861 15.0205 9.24602 14.3392 8.75526C13.658 8.2645 12.8396 8.00043 12 8.00043C11.1604 8.00043 10.3421 8.2645 9.66081 8.75526C8.97956 9.24602 8.46991 9.93861 8.20401 10.735L6.30601 10.102ZM7.00001 16V20H17V16H7.00001Z" fill="black"/>
</g>
<defs>
<clipPath id="clip0_8300_4132">
<rect width="24" height="24" fill="white"/>
</clipPath>
</defs>
</svg>

<svg width="24" height="24" fill="none" xmlns="http://www.w3.org/2000/svg"><g clip-path="url(#a)"><path d="M11 14v-3h2v3h5a1 1 0 0 1 1 1v6a1 1 0 0 1-1 1H6a1 1 0 0 1-1-1v-6a1 1 0 0 1 1-1h5ZM2.51 8.837C3.835 4.864 7.584 2 12 2s8.166 2.864 9.49 6.837l-1.898.632a8.003 8.003 0 0 0-15.184 0L2.51 8.837Zm3.796 1.265a6.003 6.003 0 0 1 11.388 0l-1.898.633a4.002 4.002 0 0 0-7.592 0l-1.898-.633ZM7 16v4h10v-4H7Z" fill="#000"/></g><defs><clipPath id="a"><path fill="#fff" d="M0 0h24v24H0z"/></clipPath></defs></svg>
